X:134
T:Herbert the Sherbert
R:jig 32
C:Martin Ellison
B:English Choice, Nick Barber, pub mally.com
M:6/8
L:1/8
Q:1/4=140
K:Em
|:"Em"E2E e3|"Am"cBA "G"B3|
"Em"GBA GFE|"Bm"FAG FED|
"Em"E2E e3|"Am"cBA "G"B3|
"Em"GBA GFE|"B"AGF "Em"E3:|
"Em"EFG "B"F3|"Em"EFG "B"F3|
"Em"Bef gfe|"G"ded B3|
"G"ded "D"A3|"D"ded "G"G3|
"G"Bde dBG|"D"AGF "Em"E3:|]

